src/mimetypes/mimetypes-media-image.svg

<?xml version="1.0" encoding="UTF-8" standalone="no"?>
<svg
   xmlns:dc="http://purl.org/dc/elements/1.1/"
   xmlns:cc="http://creativecommons.org/ns#"
   xmlns:rdf="http://www.w3.org/1999/02/22-rdf-syntax-ns#"
   xmlns:svg="http://www.w3.org/2000/svg"
   xmlns="http://www.w3.org/2000/svg"
   xmlns:sodipodi="http://sodipodi.sourceforge.net/DTD/sodipodi-0.dtd"
   xmlns:inkscape="http://www.inkscape.org/namespaces/inkscape"
   version="1.1"
   id="svg6217"
   viewBox="0 0 16 16"
   height="16"
   width="16"
   inkscape:version="0.91 r13725"
   sodipodi:docname="mimetypes-media-image.svg">
  <sodipodi:namedview
     pagecolor="#ffffff"
     bordercolor="#666666"
     borderopacity="1"
     objecttolerance="10"
     gridtolerance="10"
     guidetolerance="10"
     inkscape:pageopacity="0"
     inkscape:pageshadow="2"
     inkscape:window-width="2048"
     inkscape:window-height="1051"
     id="namedview41"
     showgrid="false"
     inkscape:zoom="14.75"
     inkscape:cx="8"
     inkscape:cy="8"
     inkscape:window-x="2048"
     inkscape:window-y="23"
     inkscape:window-maximized="1"
     inkscape:current-layer="svg6217" />
  <defs
     id="defs6219">
    <clipPath
       clipPathUnits="userSpaceOnUse"
       id="clipPath3391">
      <path
         d="M 0,600 800,600 800,0 0,0 0,600 Z"
         id="path3393" />
    </clipPath>
    <clipPath
       clipPathUnits="userSpaceOnUse"
       id="clipPath3407">
      <path
         d="m 316,477.408 60.363,0 0,-60.408 -60.363,0 0,60.408 z"
         id="path3409" />
    </clipPath>
    <clipPath
       clipPathUnits="userSpaceOnUse"
       id="clipPath3427">
      <path
         d="m 622,477.971 60.121,0 0,-59.971 -60.121,0 0,59.971 z"
         id="path3429" />
    </clipPath>
    <clipPath
       id="clipPath3391-7"
       clipPathUnits="userSpaceOnUse">
      <path
         id="path3393-1"
         d="M 0,600 800,600 800,0 0,0 0,600 Z" />
    </clipPath>
    <clipPath
       id="clipPath3407-6"
       clipPathUnits="userSpaceOnUse">
      <path
         id="path3409-4"
         d="m 316,477.408 60.363,0 0,-60.408 -60.363,0 0,60.408 z" />
    </clipPath>
    <clipPath
       id="clipPath3427-8"
       clipPathUnits="userSpaceOnUse">
      <path
         id="path3429-3"
         d="m 622,477.971 60.121,0 0,-59.971 -60.121,0 0,59.971 z" />
    </clipPath>
  </defs>
  <metadata
     id="metadata6222">
    <rdf:RDF>
      <cc:Work
         rdf:about="">
        <dc:format>image/svg+xml</dc:format>
        <dc:type
           rdf:resource="http://purl.org/dc/dcmitype/StillImage" />
        <dc:title />
      </cc:Work>
    </rdf:RDF>
  </metadata>
  <g
     transform="matrix(0,1,-1,0,0.95913124,48.25)"
     id="g4198"
     style="stroke:#000000;stroke-width:2;stroke-miterlimit:2.5;stroke-dasharray:none;stroke-opacity:1" />
  <g
     transform="matrix(0,1,-1,0,0.959131,48.25)"
     id="g4198-3"
     style="stroke:#000000;stroke-width:2;stroke-miterlimit:4;stroke-dasharray:none;stroke-opacity:0.68488746" />
  <g
     transform="matrix(0,1,-1,0,0.95913124,48.25)"
     id="g4198-2"
     style="stroke:#000000;stroke-width:2;stroke-miterlimit:2.5;stroke-dasharray:none;stroke-opacity:1" />
  <g
     transform="matrix(0,-1,1,0,13.959142,-32.216101)"
     id="g4198-3-6-3" />
  <path
     id="rect4171"
     d="M 2,2.5e-7 2,16 14,16 14,4.0000002 10,2.5e-7 Z m 8,0 z"
     style="fill:#efefef;fill-opacity:1;stroke:#b9b9b9;stroke-width:0;stroke-linecap:butt;stroke-linejoin:round;stroke-miterlimit:4;stroke-dasharray:none;stroke-opacity:1"
     inkscape:connector-curvature="0" />
  <path
     style="opacity:0.65;fill:#ffffff;fill-opacity:1;stroke:none;stroke-width:0;stroke-linecap:butt;stroke-linejoin:round;stroke-miterlimit:4;stroke-dasharray:none;stroke-opacity:1"
     d="M 10,3.9805283 10,1.990264 10,0 14,4 Z"
     id="path4162"
     inkscape:connector-curvature="0" />
  <path
     id="path4446"
     d="M 13,5.0243396 13,10 9,5 Z"
     style="opacity:0.15;fill:#000000;fill-opacity:1;stroke:none;stroke-width:0;stroke-linecap:butt;stroke-linejoin:round;stroke-miterlimit:4;stroke-dasharray:none;stroke-opacity:1"
     inkscape:connector-curvature="0" />
  <path
     inkscape:connector-curvature="0"
     style="opacity:1;fill:#b9b9b9;fill-opacity:1;stroke:none;stroke-width:1;stroke-linecap:butt;stroke-linejoin:miter;stroke-miterlimit:4;stroke-dasharray:none;stroke-opacity:1"
     d="m 2,0 0,1 0,14 0,1 12,0 0,-1 L 14,5 14,4 13.98828,4 13.99218,3.99219 10.007812,0.00585938 10,0.01367188 10,0 3,0 2,0 Z M 3,1 9,1 9,4 9,5 13,5 13,15 3,15 3,1 Z M 10,1.4121094 12.585938,4 10,4 10,1.4121094 Z"
     id="rect4184" />
  <path
     inkscape:connector-curvature="0"
     d="m 9.499995,13.000023 -2.2499958,0 -2.2499957,0 1.1249978,-1.499984 1.1249979,-1.500017 1.1249978,1.500017 z"
     id="path4138"
     style="fill:#5599ff;fill-opacity:1;stroke:#ffaaaa;stroke-width:0;stroke-miterlimit:4;stroke-dasharray:none;stroke-opacity:1" />
  <path
     inkscape:connector-curvature="0"
     style="fill:#5599ff;fill-opacity:1;stroke:#ffaaaa;stroke-width:0;stroke-miterlimit:4;stroke-dasharray:none;stroke-opacity:1"
     id="path4144"
     d="m 10.999994,13.000017 -1.9999954,0 -1.9999957,0 0.9999978,-0.999989 0.9999979,-1.000009 0.9999978,1.000009 z" />
  <circle
     r="0.74999702"
     cy="9.2500734"
     cx="9.7500019"
     id="path4146"
     style="fill:#e8a33d;fill-opacity:1;stroke:#ffaaaa;stroke-width:0;stroke-miterlimit:4;stroke-dasharray:none;stroke-opacity:1" />
  <g
     style="display:inline"
     id="layer2" />
</svg>

<?xml version="1.0" encoding="utf-8"?>
<!-- Generator: Adobe Illustrator 19.1.1, SVG Export Plug-In . SVG Version: 6.00 Build 0)  -->
<svg version="1.1" xmlns="http://www.w3.org/2000/svg" xmlns:xlink="http://www.w3.org/1999/xlink" x="0px" y="0px"
	 viewBox="0 0 16 16" enable-background="new 0 0 16 16" xml:space="preserve">
<path fill="#EFEFEF" d="M2,0v16h12V4l-4-4H2z"/>
<path opacity="0.65" fill="#FFFFFF" enable-background="new    " d="M10,4V0l4,4H10z"/>
<path opacity="0.2" enable-background="new    " d="M13,5v5L9,5H13z"/>
<path fill="#999999" d="M2,0v16h12V4l0,0l0,0l-4-4l0,0l0,0H2z M3,1h6v4h4v10H3V1z M10,1.4L12.6,4H10V1.4z"/>
<path fill="#5599FF" d="M9.5,13H7.25H5l1.125-1.5L7.25,10l1.125,1.5L9.5,13z"/>
<path fill="#5599FF" d="M11,13H9H7l1-1l1-1l1,1L11,13z"/>
<circle fill="#E8A33D" cx="9.75" cy="9.25" r="0.75"/>
</svg>
